images/wallet.svg

<svg width="512" height="512" viewBox="0 0 512 512" fill="none" xmlns="http://www.w3.org/2000/svg">
<path d="M460.765 409.618V494.936H55.5017C34.3338 494.936 17.1079 477.71 17.1079 456.542V162.194H0.0440063V456.543C0.0440063 487.121 24.9229 512 55.5007 512H469.296C474.014 512 477.828 508.186 477.828 503.468V409.618H460.765Z" fill="#BC7045"/>
<path d="M469.296 196.321H55.5017C34.3338 196.321 17.1079 179.095 17.1079 157.927C17.1079 136.759 34.3338 119.533 55.5017 119.533H204.809V102.469H55.5017C24.9238 102.469 0.0449829 127.348 0.0449829 157.926C0.0449829 188.504 24.9238 213.383 55.5017 213.383H460.765V290.169H477.829V204.851C477.828 200.144 474.015 196.321 469.296 196.321Z" fill="#BC7045"/>
<path d="M503.424 102.47H435.169V119.534H494.892V401.086H460.764V418.15H503.424C508.142 418.15 511.956 414.336 511.956 409.618V111.002C511.956 106.293 508.142 102.47 503.424 102.47Z" fill="#BC7045"/>
<path d="M341.319 315.767C322.498 315.767 307.191 331.073 307.191 349.895C307.191 368.717 322.497 384.023 341.319 384.023C360.14 384.023 375.447 368.717 375.447 349.895C375.447 331.073 360.14 315.767 341.319 315.767ZM341.319 366.959C331.908 366.959 324.255 359.306 324.255 349.895C324.255 340.484 331.908 332.831 341.319 332.831C350.73 332.831 358.383 340.484 358.383 349.895C358.383 359.306 350.729 366.959 341.319 366.959Z" fill="#BC7045"/>
<path d="M503.424 281.64H341.319C303.685 281.64 273.064 312.261 273.064 349.895C273.064 387.529 303.685 418.15 341.319 418.15H503.424C508.142 418.15 511.956 414.336 511.956 409.618V290.171C511.956 285.453 508.142 281.64 503.424 281.64ZM494.892 401.086H341.319C313.087 401.086 290.128 378.127 290.128 349.895C290.128 321.663 313.087 298.704 341.319 298.704H494.892V401.086V401.086Z" fill="#BC7045"/>
<path d="M494.235 157.578L351.523 12.6559C351.463 12.5879 351.395 12.5279 351.335 12.4599C334.689 -4.16897 307.626 -4.13497 291.048 12.4509L102.076 198.787L114.055 210.936L303.07 24.5569C313.018 14.6259 329.169 14.5489 339.151 24.4199C339.185 24.4539 339.219 24.4799 339.245 24.5139L482.102 169.581C491.99 179.529 491.99 195.714 482.136 205.637L463.281 224.407L475.311 236.497L494.201 217.693C510.693 201.116 510.693 174.13 494.235 157.578Z" fill="#BC7045"/>
<path d="M415.205 162.202C391.683 162.202 372.545 181.339 372.545 204.862H389.609C389.609 190.75 401.093 179.266 415.205 179.266C429.317 179.266 440.801 190.75 440.801 204.862H457.865C457.865 181.339 438.728 162.202 415.205 162.202Z" fill="#BC7045"/>
<path d="M64.0339 136.607C33.4559 136.607 8.57693 161.486 8.57693 192.064H25.6399C25.6399 170.896 42.8659 153.67 64.0339 153.67H170.683V136.606H64.0339V136.607Z" fill="#BC7045"/>
<path d="M131.674 238.981H114.354V256.045H131.674V238.981Z" fill="#BC7045"/>
<path d="M200.961 238.981H183.641V256.045H200.961V238.981Z" fill="#BC7045"/>
<path d="M166.322 238.981H149.002V256.045H166.322V238.981Z" fill="#BC7045"/>
<path d="M22.9099 223.939L9.43793 234.417C13.6439 239.818 18.7459 244.365 24.6079 247.923L33.4639 233.342C29.3849 230.867 25.8359 227.702 22.9099 223.939Z" fill="#BC7045"/>
<path d="M97.0435 238.981H79.7235V256.045H97.0435V238.981Z" fill="#BC7045"/>
<path d="M46.6707 238.367L43.5737 255.149C46.9007 255.763 50.2967 256.079 53.6667 256.079C53.6927 256.079 53.7267 256.079 53.7517 256.071L62.4027 256.045V238.981L53.7347 239.007C51.3547 238.81 48.9917 238.793 46.6707 238.367Z" fill="#BC7045"/>
<path d="M304.879 238.981H287.559V256.045H304.879V238.981Z" fill="#BC7045"/>
<path d="M235.601 238.981H218.281V256.045H235.601V238.981Z" fill="#BC7045"/>
<path d="M408.789 238.981H391.478V256.045H408.789V238.981Z" fill="#BC7045"/>
<path d="M443.436 238.981H426.116V256.045H443.436V238.981Z" fill="#BC7045"/>
<path d="M374.158 238.981H356.838V256.045H374.158V238.981Z" fill="#BC7045"/>
<path d="M339.51 238.981H322.199V256.045H339.51V238.981Z" fill="#BC7045"/>
<path d="M270.232 238.981H252.921V256.045H270.232V238.981Z" fill="#BC7045"/>
<path d="M469.339 238.981H460.807V256.045H469.339V238.981Z" fill="#BC7045"/>
<path d="M235.601 452.277H218.281V469.341H235.601V452.277Z" fill="#BC7045"/>
<path d="M200.961 452.277H183.641V469.341H200.961V452.277Z" fill="#BC7045"/>
<path d="M166.322 452.277H149.002V469.341H166.322V452.277Z" fill="#BC7045"/>
<path d="M22.9099 437.227L9.43793 447.712C13.6439 453.121 18.7459 457.66 24.6079 461.218L33.4639 446.637C29.3849 444.163 25.8359 440.989 22.9099 437.227Z" fill="#BC7045"/>
<path d="M46.6707 451.663L43.5907 468.445C46.9347 469.059 50.3477 469.367 53.7347 469.367L62.4027 469.341V452.277L53.7347 452.303C51.3717 452.302 48.9997 452.089 46.6707 451.663Z" fill="#BC7045"/>
<path d="M97.0435 452.277H79.7235V469.341H97.0435V452.277Z" fill="#BC7045"/>
<path d="M131.682 452.277H114.362V469.341H131.682V452.277Z" fill="#BC7045"/>
<path d="M408.789 452.277H391.478V469.341H408.789V452.277Z" fill="#BC7045"/>
<path d="M374.158 452.277H356.838V469.341H374.158V452.277Z" fill="#BC7045"/>
<path d="M443.436 452.277H426.116V469.341H443.436V452.277Z" fill="#BC7045"/>
<path d="M270.241 452.277H252.921V469.341H270.241V452.277Z" fill="#BC7045"/>
<path d="M304.879 452.277H287.559V469.341H304.879V452.277Z" fill="#BC7045"/>
<path d="M339.51 452.277H322.199V469.341H339.51V452.277Z" fill="#BC7045"/>
<path d="M469.339 452.277H460.807V469.341H469.339V452.277Z" fill="#BC7045"/>
<path d="M326.725 173.226L301.128 198.824L313.194 210.89L338.791 185.292L326.725 173.226Z" fill="#BC7045"/>
</svg>

<?xml version="1.0" encoding="iso-8859-1"?>
<!-- Generator: Adobe Illustrator 19.0.0, SVG Export Plug-In . SVG Version: 6.00 Build 0)  -->
<svg xmlns="http://www.w3.org/2000/svg" xmlns:xlink="http://www.w3.org/1999/xlink" version="1.1" id="Capa_1" x="0px" y="0px" viewBox="0 0 512.003 512.003" style="enable-background:new 0 0 512.003 512.003;" xml:space="preserve" width="512px" height="512px">
<g>
	<g>
		<path d="M460.768,409.62v85.319H55.502c-21.168,0-38.394-17.226-38.394-38.394V162.195H0.044v294.351    c0,30.578,24.879,55.457,55.457,55.457h413.798c4.718,0,8.532-3.814,8.532-8.532V409.62H460.768z" fill="#b2b8bc"/>
	</g>
</g>
<g>
	<g>
		<path d="M469.299,196.322H55.502c-21.168,0-38.394-17.226-38.394-38.394s17.226-38.394,38.394-38.394H204.81v-17.064H55.502    c-30.578,0-55.457,24.879-55.457,55.457s24.879,55.457,55.457,55.457h405.266v76.787h17.064v-85.319    C477.831,200.145,474.018,196.322,469.299,196.322z" fill="#b2b8bc"/>
	</g>
</g>
<g>
	<g>
		<path d="M503.427,102.471h-68.255v17.064h59.723v281.553h-34.128v17.064h42.66c4.718,0,8.532-3.814,8.532-8.532V111.003    C511.959,106.294,508.145,102.471,503.427,102.471z" fill="#b2b8bc"/>
	</g>
</g>
<g>
	<g>
		<path d="M341.321,315.769c-18.821,0-34.128,15.306-34.128,34.128s15.306,34.128,34.128,34.128    c18.821,0,34.128-15.306,34.128-34.128S360.142,315.769,341.321,315.769z M341.321,366.961c-9.411,0-17.064-7.653-17.064-17.064    s7.653-17.064,17.064-17.064s17.064,7.653,17.064,17.064S350.731,366.961,341.321,366.961z" fill="#b2b8bc"/>
	</g>
</g>
<g>
	<g>
		<path d="M503.427,281.642H341.321c-37.634,0-68.255,30.621-68.255,68.255c0,37.634,30.621,68.255,68.255,68.255h162.106    c4.718,0,8.532-3.814,8.532-8.532V290.173C511.959,285.455,508.145,281.642,503.427,281.642z M494.895,401.088H341.321    c-28.232,0-51.191-22.959-51.191-51.191s22.959-51.191,51.191-51.191h153.574V401.088z" fill="#b2b8bc"/>
	</g>
</g>
<g>
	<g>
		<path d="M494.238,157.579L351.525,12.656c-0.06-0.068-0.128-0.128-0.188-0.196c-16.646-16.629-43.709-16.595-60.287-0.009    L102.077,198.788l11.979,12.149l189.016-186.38c9.948-9.931,26.099-10.008,36.081-0.137c0.034,0.034,0.068,0.06,0.094,0.094    l142.858,145.068c9.888,9.948,9.888,26.133,0.034,36.056l-18.855,18.77l12.03,12.09l18.89-18.804    C510.696,201.117,510.696,174.131,494.238,157.579z" fill="#b2b8bc"/>
	</g>
</g>
<g>
	<g>
		<path d="M415.207,162.203c-23.522,0-42.66,19.137-42.66,42.66h17.064c0-14.112,11.484-25.596,25.596-25.596    s25.596,11.484,25.596,25.596h17.064C457.867,181.34,438.73,162.203,415.207,162.203z" fill="#b2b8bc"/>
	</g>
</g>
<g>
	<g>
		
			<rect x="228.662" y="98.253" transform="matrix(0.7071 -0.7071 0.7071 0.7071 7.3682 231.3582)" width="108.593" height="17.064" fill="#b2b8bc"/>
	</g>
</g>
<g>
	<g>
		<rect x="295.463" y="106.747" transform="matrix(0.7071 -0.7071 0.7071 0.7071 13.858 264.0146)" width="60.32" height="17.064" fill="#b2b8bc"/>
	</g>
</g>
<g>
	<g>
		<path d="M64.034,136.608c-30.578,0-55.457,24.879-55.457,55.457H25.64c0-21.168,17.226-38.394,38.394-38.394h106.649v-17.064    H64.034z" fill="#b2b8bc"/>
	</g>
</g>
<g>
	<g>
		<path d="M17.117,204.889l-17.064-0.051c-0.009,3.396,0.29,6.8,0.904,10.11l16.782-3.106    C17.321,209.564,17.108,207.226,17.117,204.889z" fill="#b2b8bc"/>
	</g>
</g>
<g>
	<g>
		<g>
			<rect x="114.355" y="238.982" width="17.32" height="17.064" fill="#b2b8bc"/>
			<rect x="183.642" y="238.982" width="17.32" height="17.064" fill="#b2b8bc"/>
			<rect x="149.003" y="238.982" width="17.32" height="17.064" fill="#b2b8bc"/>
			<path d="M22.91,223.94L9.438,234.418c4.206,5.401,9.308,9.948,15.17,13.506l8.856-14.581     C29.385,230.868,25.836,227.703,22.91,223.94z" fill="#b2b8bc"/>
			<rect x="79.724" y="238.982" width="17.32" height="17.064" fill="#b2b8bc"/>
			<path d="M46.671,238.368l-3.097,16.782c3.327,0.614,6.723,0.93,10.093,0.93c0.026,0,0.06,0,0.085-0.008l8.651-0.026v-17.064     l-8.668,0.026C51.355,238.811,48.992,238.794,46.671,238.368z" fill="#b2b8bc"/>
			<rect x="287.561" y="238.982" width="17.32" height="17.064" fill="#b2b8bc"/>
			<rect x="218.282" y="238.982" width="17.32" height="17.064" fill="#b2b8bc"/>
			<rect x="391.48" y="238.982" width="17.311" height="17.064" fill="#b2b8bc"/>
			<rect x="426.119" y="238.982" width="17.32" height="17.064" fill="#b2b8bc"/>
			<rect x="356.84" y="238.982" width="17.32" height="17.064" fill="#b2b8bc"/>
			<rect x="322.201" y="238.982" width="17.311" height="17.064" fill="#b2b8bc"/>
			<rect x="252.922" y="238.982" width="17.311" height="17.064" fill="#b2b8bc"/>
		</g>
	</g>
</g>
<g>
	<g>
		<rect x="460.81" y="238.982" width="8.532" height="17.064" fill="#b2b8bc"/>
	</g>
</g>
<g>
	<g>
		<path d="M17.117,418.178l-17.064-0.051c-0.009,3.404,0.29,6.808,0.904,10.119l16.782-3.123    C17.321,422.862,17.108,420.516,17.117,418.178z" fill="#b2b8bc"/>
	</g>
</g>
<g>
	<g>
		<g>
			<rect x="218.282" y="452.28" width="17.32" height="17.064" fill="#b2b8bc"/>
			<rect x="183.642" y="452.28" width="17.32" height="17.064" fill="#b2b8bc"/>
			<rect x="149.003" y="452.28" width="17.32" height="17.064" fill="#b2b8bc"/>
			<path d="M22.91,437.23L9.438,447.715c4.206,5.409,9.308,9.948,15.17,13.506l8.856-14.581     C29.385,444.166,25.836,440.992,22.91,437.23z" fill="#b2b8bc"/>
			<path d="M46.671,451.666l-3.08,16.782c3.344,0.614,6.757,0.922,10.144,0.922l8.668-0.026V452.28l-8.668,0.026     C51.372,452.305,49,452.092,46.671,451.666z" fill="#b2b8bc"/>
			<rect x="79.724" y="452.28" width="17.32" height="17.064" fill="#b2b8bc"/>
			<rect x="114.363" y="452.28" width="17.32" height="17.064" fill="#b2b8bc"/>
			<rect x="391.48" y="452.28" width="17.311" height="17.064" fill="#b2b8bc"/>
			<rect x="356.84" y="452.28" width="17.32" height="17.064" fill="#b2b8bc"/>
			<rect x="426.119" y="452.28" width="17.32" height="17.064" fill="#b2b8bc"/>
			<rect x="252.922" y="452.28" width="17.32" height="17.064" fill="#b2b8bc"/>
			<rect x="287.561" y="452.28" width="17.32" height="17.064" fill="#b2b8bc"/>
			<rect x="322.201" y="452.28" width="17.311" height="17.064" fill="#b2b8bc"/>
		</g>
	</g>
</g>
<g>
	<g>
		<rect x="460.81" y="452.28" width="8.532" height="17.064" fill="#b2b8bc"/>
	</g>
</g>
<g>
	<g>
		<rect x="469.342" y="136.599" width="34.128" height="17.064" fill="#b2b8bc"/>
	</g>
</g>
<g>
	<g>
		<rect x="342.793" y="136.586" transform="matrix(0.7071 -0.7071 0.7071 0.7071 4.8563 301.96)" width="48.265" height="17.064" fill="#b2b8bc"/>
	</g>
</g>
<g>
	<g>
		
			<rect x="301.864" y="183.527" transform="matrix(0.7071 -0.7071 0.7071 0.7071 -42.0905 282.5013)" width="36.201" height="17.064" fill="#b2b8bc"/>
	</g>
</g>
<g>
</g>
<g>
</g>
<g>
</g>
<g>
</g>
<g>
</g>
<g>
</g>
<g>
</g>
<g>
</g>
<g>
</g>
<g>
</g>
<g>
</g>
<g>
</g>
<g>
</g>
<g>
</g>
<g>
</g>
</svg>
